X:1
T:Non fuggir filli
T:Non fuggir filli
T:Giovanni Nauwach
T:Source : Libro primo di Arie passegiata a una voce + BC ---Brescia---1623. Editor : André Vierendeels (30/10/16).
T:aria
T:©
T:©
T:©
C:Giovanni Nauwach
Z:©
%%score 1 2
L:1/8
Q:1/4=89
M:3/4
K:F
V:1 treble nm="Soprano" snm="S"
V:2 bass nm="MusicXML Part"
V:1
 z2 c2 A2 | dc BA G2 | _ed cB AB | G4 G2 | AB cA dc | B4 A2 | dc BA G2 | F6 | G4 A2 | BA Bc d2- | %10
w: Non fug-|gir _ _ _ _|fil- * li _ de _|bel- la,|o _ di- al me _|gl'ul- ti-|m'ac- * * * cen-|ti,|del mio|mal _ _ _ _|
w: Ec- co|sco- * * * pro|ne- * * * le _|lu- ci,|il _ mi- o cor _|tra- fitt|a _ _ _ mor-|te,|de te|vien _ _ _ l'as-|
w: L'es- ser|bel- * * * l'a|te _ _ _ non _|to- glie,|di- * mo- strar- ti'an- *|che pie-|to- * * * *|sa,|e la|ser- * * * pe|
w: Ma per|che _ _ _ nel|ciel _ _ _ l'au- *|ro- ra,|spen- * ge'il lu- men _|all' au-|re _ _ _ stel-|le,|del- la|lu- * * * n'al-|
 d4 F2 | FG AB cA | BA GF GA |1 F6 ::2 z6 || GA BG cB | A2 A4 | dc BA GA | ^F2 F4 | %19
w: _ pie-|to- * * * si _|ven- * * * * *|ti,||lo pro- nun- ci- al- le|stel- le,|ma tu sor- da cru- da|fe- ra|
w: * pra|mia _ _ _ _ _|for- * * * * *|te,||poi che'a mor- te mi con|du- ci,|can- gia, can- gia'o mai ef-|fet- to|
w: _ ve-|le- * * * * *|no- * * * * *|sa,||che s'a- man- ta d'au- re|spo- glie,|bel- ta'e- ter- na de co-|pri- re|
w: * me|fa- * * * * *|cel- * * * * *|le,||pon- go son fin no- bil|si- gno-|r'al mio can- to'e di- co'a|Di- o|
[M:4/4] z2 GA B4- | B2 AB c4- | c2 d2 A4 | G6 FG | A6 GA | B/A/B/G/ A/B/c/B/ A/G/F/E/ D/E/F/E/ | %25
w: del mio mal|_ ne _ vai|_ al- te-|ra, del mio|mal ne _|vai _ _ _ _ _ _ _ _ _ _ _ _ _ _ _|
w: non m'o- diar|_ dol- * ce|_ di- let-|to, non m'o-|diar dol- *|ce _ _ _ _ _ _ _ _ _ _ _ _ _ _ _|
w: no- bil cor|_ na- * to'al|_ gio- i-|re, no- bil|cor na- *|to'al- * * * * * * * * * * * * * * *|
w: ca- ra fiam-|* ma _ del|_ cor mi-|o, ca- ra|fiam- ma _|del _ _ _ _ _ _ _ _ _ _ _ _ _ _ _|
 F/D/E/F/ G/A/B/c/ d/e/f- fF | G8 | !fermata!F8 :| %28
w: _ _ _ _ _ _ _ _ _ _ _ _ al-|te-|ra.|
w: _ _ _ _ _ _ _ _ _ _ _ _ di-|let-|to.|
w: * * * * * * * * * * * * gio-|i-|re.|
w: _ _ _ _ _ _ _ _ _ _ _ _ cor|mi-|o|
V:2
"^BC" F,4 F,2 | B,,4 _E,2 | C,4 D,2 | G,,4 G,,2 | F,6 | B,,C, D,E, F,2 | B,,4 C,2 | F,3 E, D,2 | %8
 C,2 B,,2 A,,2 | G,,6 | G,,A,, B,,C, D,E, | F,6 | B,,2 C,4 |1 F,6 ::2 F,2 E,2 D,2 || C,2 G,4 | %16
 F,4 F,2 | B,,4 C,2 | D,6 |[M:4/4] G,,4 G,4 | F,8 | _E,2 C,2 D,4 | G,,2 A,,2 B,,4 | F,8 | %24
 G,4 F,4- | F,4 F,,4 | C,8 | !fermata!F,,8 :| %28

